X: 41708
T: Valley Of Knockanure, The
R: waltz
M: 3/4
K: Eminor
G>A|B3 c B2|A4 BA|G4 E2|A4 (3AGE|D2 B,3 D|E4- E>F|E6-|E4 B2|
E2 D2 E2|G4 A2|B3 A B2|d4 ed|B4 BA|G4 A2|B6-|B4 D2|
E3 D E2|G4 GA|B2 A2 B2|d4 ge|dB- B2 BA|G3 G, (3B,DG|B6|D4 GA|
B3 d Bd|B4 B<A|G4 GE|A2 G2 EG|DG, B,3 D|E4 E>D|E6-|E4||

